X:241
M:4/4
L:1/4
K:C
z G G G | G G G/A/ B | c2 z c | d d c G | A B c2 | z c d d | c G A G | F2 z F | A B c2 | _B G B2 | !sintro!_B3/2 A/ G2 | G4 !eintro!|]
